X: 4
T: Rolling In The Barrel
R: reel
M: 4/4
L: 1/8
K: Emin
|: E2{G}E2 B~E2B | (3BcB AF DEFD | E2{G}E2 B~E2B | (3BcB Ad BGAF | E2{G}E2 B~E2B | (3BcB AF DEFD | E2{G}E2 B~E2B| (3BcB Ad BGAF ||e2 (3gfe bege | d^cdf a2fd | e2ge bege | dBAc BE {G}ED |e2 (3gfe be (3gfe | d^cdf a2fd | efge f~B3 | dBA c BE~E2 |


Tune 500	Setting 25728

